docs/images/wip3.svg

<?xml version="1.0" encoding="UTF-8"?>
<!-- Generated by Pixelmator Pro 3.6.11 -->
<svg width="1000" height="240" viewBox="0 0 1000 240" xmlns="http://www.w3.org/2000/svg">
    <path id="Path" fill="#1a2733" stroke="none" d="M 201.839996 116.709999 L 201.839996 101.050003 L 175.759995 101.050003 L 175.759995 116.709999 L 158.610001 116.709999 L 158.610001 22.440002 L 85.360001 22.440002 L 85.360001 69.540009 L 68.209999 69.540009 L 68.209999 53.880005 L 42.130001 53.880005 L 42.130001 69.540009 L 22.48 69.540009 L 22.48 221.300003 L 221.509995 221.270004 L 221.509995 116.709999 L 201.860001 116.709999 Z M 156.100006 211.229996 L 24.969999 211.229996 L 24.969999 166.440002 L 156.110001 166.440002 L 156.110001 211.229996 Z M 218.990005 163.940002 L 87.860001 163.940002 L 87.860001 119.209999 L 219 119.209999 L 219 163.940002 Z M 178.25 103.550003 L 199.330002 103.550003 L 199.330002 116.709999 L 178.25 116.709999 L 178.25 103.550003 Z M 87.860001 24.940002 L 156.110001 24.940002 L 156.110001 69.540009 L 87.860001 69.540009 L 87.860001 24.940002 Z M 44.619999 56.380005 L 65.699997 56.380005 L 65.699997 69.540009 L 44.619999 69.540009 L 44.619999 56.380005 Z M 24.969999 72.040009 L 156.110001 72.040009 L 156.110001 116.709999 L 24.969999 116.709999 L 24.969999 72.040009 Z M 24.969999 119.209999 L 85.360001 119.209999 L 85.360001 163.940002 L 24.969999 163.940002 L 24.969999 119.209999 Z M 219 211.289993 L 158.610001 211.289993 L 158.610001 166.440002 L 219 166.440002 L 219 211.289993 Z"/>
    <text id="Work-in-Progress" xml:space="preserve" x="259.488529" y="148" font-family="BentonSans" font-size="78.991" font-weight="700" fill="#1a2733" letter-spacing="-0.85">Work in Progress...</text>
</svg>

<svg xmlns="http://www.w3.org/2000/svg" width="1000" height="240"><path fill="#1a2733" d="M201.84 116.71v-15.66h-26.08v15.66h-17.15V22.44H85.36v47.1H68.21V53.88H42.13v15.66H22.48V221.3l199.03-.03V116.71h-19.65Zm-45.74 94.52H24.97v-44.79h131.14v44.79Zm62.89-47.29H87.86v-44.73H219v44.73Zm-40.74-60.39h21.08v13.16h-21.08zM87.86 24.94h68.25v44.6H87.86zM44.62 56.38H65.7v13.16H44.62zM24.97 72.04h131.14v44.67H24.97zm0 47.17h60.39v44.73H24.97zM219 211.29h-60.39v-44.85H219z"/><text xml:space="preserve" x="259.489" y="148" fill="#1a2733" font-family="BentonSans" font-size="78.991" font-weight="700" letter-spacing="-.85">Work in Progress...</text></svg>
